dist/img/yt-icon.svg

<svg width="26" height="26" viewBox="0 0 26 26" fill="none" xmlns="http://www.w3.org/2000/svg">
    <path d="M11.3809 15.4355L15.6096 13L11.3809 10.5645V15.4355Z" />
    <path d="M13 0C5.8214 0 0 5.8214 0 13C0 20.1786 5.8214 26 13 26C20.1786 26 26 20.1786 26 13C26 5.8214 20.1786 0 13 0ZM21.123 13.0133C21.123 13.0133 21.123 15.6497 20.7886 16.9211C20.6011 17.6169 20.0524 18.1656 19.3566 18.3529C18.0853 18.6875 13 18.6875 13 18.6875C13 18.6875 7.92802 18.6875 6.64342 18.3396C5.94756 18.1523 5.39888 17.6034 5.21143 16.9076C4.87679 15.6497 4.87679 13 4.87679 13C4.87679 13 4.87679 10.3637 5.21143 9.09242C5.39868 8.39656 5.96085 7.8344 6.64342 7.64714C7.91473 7.3125 13 7.3125 13 7.3125C13 7.3125 18.0853 7.3125 19.3566 7.66043C20.0524 7.84769 20.6011 8.39656 20.7886 9.09242C21.1365 10.3637 21.123 13.0133 21.123 13.0133Z"
          />
</svg>

<svg width="26" height="26" fill="none" xmlns="http://www.w3.org/2000/svg"><path d="M11.38 15.435L15.61 13l-4.23-2.435v4.87z"/><path d="M13 0C5.821 0 0 5.821 0 13s5.821 13 13 13 13-5.821 13-13S20.179 0 13 0zm8.123 13.013s0 2.637-.334 3.908a2.036 2.036 0 01-1.432 1.432c-1.272.334-6.357.334-6.357.334s-5.072 0-6.357-.347a2.036 2.036 0 01-1.432-1.432C4.877 15.65 4.877 13 4.877 13s0-2.636.334-3.908a2.077 2.077 0 011.432-1.445C7.915 7.312 13 7.312 13 7.312s5.085 0 6.357.348a2.036 2.036 0 011.432 1.432c.348 1.272.334 3.921.334 3.921z"/></svg>
